X: 4171
T: CAPTAIN KELLY
%R: reel
B: James Kerr "Merry Melodies" v.4 p.20 #171
Z: 2016 John Chambers <jc:trillian.mit.edu>
M: C|
L: 1/8
K: D
|:\
DFEF D2(dB) | AD(FD) BB,B,2 |\
DFEF D2(dc) | BGAF D/D/D D2 ::\
d2(fd) adfd |
ceAe ceAe |\
[1 d2(fd) adfd | (3(ABc) (eg) (fd)d2 :|\
[2 fdec dAFA | BGAF D/D/D D2 |]

%%sep 1 1 500
%%sep 1 1 500

